src/components/CallToAction/images/roadmap.svg

<svg xmlns="http://www.w3.org/2000/svg" width="20" height="20" fill="none" viewBox="0 0 20 20"><path fill="#fff" d="M17.0403 10.861C17.9403 9.30084 19.5005 6.4212 19.5005 5.2212C19.5005 3.5212 18.1208 2.1416 16.4209 2.1416C14.721 2.1416 13.3413 3.52128 13.3413 5.2212C13.3413 6.4212 14.9015 9.3008 15.8015 10.861C16.0804 11.3407 16.7609 11.3407 17.0406 10.861H17.0403ZM14.9801 5.2212C14.9801 4.4212 15.6199 3.78136 16.4199 3.78136C17.2199 3.78136 17.8598 4.4212 17.8598 5.2212C17.8598 6.0212 17.2199 6.66104 16.4199 6.66104C15.6207 6.66104 14.9801 6.00088 14.9801 5.2212Z"/><path fill="#fff" d="M16.7206 12.6H11.0002C10.2205 12.6 9.6002 11.9796 9.6002 11.2C9.6002 10.4203 10.2205 9.79997 11.0002 9.79997H12.5604C12.9002 9.79997 13.1807 9.52029 13.1807 9.17965C13.1807 8.83981 12.901 8.55933 12.5604 8.55933L11.0002 8.56011C9.56036 8.56011 8.3798 9.73979 8.3798 11.1805C8.3798 12.6203 9.56026 13.8203 11.0002 13.8203H16.7002C17.4799 13.8203 18.1002 14.4406 18.1002 15.2203C18.1002 16 17.4799 16.6203 16.7002 16.6203H6.5002C6.16036 16.6203 5.87988 16.9 5.87988 17.2406C5.87988 17.5805 6.15956 17.8609 6.5002 17.8609H16.7206C18.1604 17.8609 19.341 16.6813 19.341 15.2405C19.3402 13.7999 18.1605 12.5999 16.7206 12.5999V12.6Z"/><path fill="#fff" d="M3.5796 8.72095C1.8796 8.72095 0.5 10.1006 0.5 11.8005C0.5 13.0005 2.06016 15.8801 2.9602 17.4403C3.23988 17.92 3.92036 17.92 4.20004 17.4403C5.10004 15.8802 6.66024 13.0005 6.66024 11.8005C6.66024 10.0802 5.27978 8.72095 3.57984 8.72095H3.5796ZM3.5796 13.2209C2.7796 13.2209 2.13976 12.5811 2.13976 11.7811C2.13976 10.9811 2.7796 10.3413 3.5796 10.3413C4.3796 10.3413 5.01944 10.9811 5.01944 11.7811C5.02022 12.5803 4.3796 13.2209 3.5796 13.2209Z"/></svg>

<svg fill="none" viewBox="0 0 20 20"><path fill="#fff" d="M17.04 10.861c.9-1.56 2.46-4.44 2.46-5.64a3.08 3.08 0 00-6.159 0c0 1.2 1.56 4.08 2.46 5.64.28.48.96.48 1.24 0zm-2.06-5.64c0-.8.64-1.44 1.44-1.44.8 0 1.44.64 1.44 1.44 0 .8-.64 1.44-1.44 1.44-.8 0-1.44-.66-1.44-1.44z"/><path fill="#fff" d="M16.72 12.6H11c-.78 0-1.4-.62-1.4-1.4 0-.78.62-1.4 1.4-1.4h1.56c.34 0 .62-.28.62-.62 0-.34-.279-.62-.62-.62H11a2.63 2.63 0 00-2.62 2.62c0 1.44 1.18 2.64 2.62 2.64h5.7c.78 0 1.4.62 1.4 1.4 0 .78-.62 1.4-1.4 1.4H6.5c-.34 0-.62.28-.62.62 0 .34.28.62.62.62h10.22a2.63 2.63 0 002.621-2.62c0-1.44-1.18-2.64-2.62-2.64zM3.58 8.721A3.08 3.08 0 00.5 11.8c0 1.2 1.56 4.08 2.46 5.64.28.479.96.479 1.24 0 .9-1.56 2.46-4.44 2.46-5.64 0-1.72-1.38-3.08-3.08-3.08zm0 4.5c-.8 0-1.44-.64-1.44-1.44 0-.8.64-1.44 1.44-1.44.8 0 1.44.64 1.44 1.44 0 .8-.64 1.44-1.44 1.44z"/></svg>
